X:9574
T:Lieber Augustine,aka. GS.026
M:3/8
L:1/16
Q:50
S:George Spencer m/s, Leeds,1831
R:Waltz
O:England
A:Leeds
N:No Title in ms..I learnt this at school, as a song - 'Ah my dearest
N:Augustine, all is
N:gone by'.  It's probably by someone famous.
H:1831
Z:vmp.Cherri Graebe
K:G Major
d2dedc | B2G2G2 | A2D2D2 |  B2G2G2 | d2dedc | !
B2G2G2 | A2D2D2 | G6 :||: A2D2D2 | B2G2G2 |! c2A2A2 | d2d2 Bc | d2dedc |
B2G2G2 | A2D2D2 | G6 :||


